src/status/32/liferea-available.svg

<?xml version="1.0" encoding="UTF-8" standalone="no"?>
<svg
   width="32px"
   height="32px"
   viewBox="0 0 32 32"
   version="1.1"
   id="svg5"
   sodipodi:docname="liferea-available.svg"
   inkscape:version="1.1 (c68e22c387, 2021-05-23)"
   xmlns:inkscape="http://www.inkscape.org/namespaces/inkscape"
   xmlns:sodipodi="http://sodipodi.sourceforge.net/DTD/sodipodi-0.dtd"
   xmlns="http://www.w3.org/2000/svg"
   xmlns:svg="http://www.w3.org/2000/svg">
  <defs
     id="defs9" />
  <sodipodi:namedview
     id="namedview7"
     pagecolor="#ffffff"
     bordercolor="#666666"
     borderopacity="1.0"
     inkscape:pageshadow="2"
     inkscape:pageopacity="0.0"
     inkscape:pagecheckerboard="0"
     showgrid="false"
     inkscape:zoom="21.5625"
     inkscape:cx="15.976812"
     inkscape:cy="16"
     inkscape:window-width="1920"
     inkscape:window-height="1018"
     inkscape:window-x="0"
     inkscape:window-y="32"
     inkscape:window-maximized="1"
     inkscape:current-layer="svg5" />
  <g
     id="surface1"
     style="fill:#eceff4">
    <path
       style="stroke:none;fill-rule:nonzero;fill:#eceff4;fill-opacity:1"
       d="M 5.6875 22.558594 C 3.625 22.558594 1.945312 24.242188 1.945312 26.292969 C 1.945312 28.355469 3.625 30.019531 5.6875 30.019531 C 7.757812 30.019531 9.433594 28.355469 9.433594 26.292969 C 9.433594 24.242188 7.757812 22.558594 5.6875 22.558594 Z M 1.949219 11.496094 L 1.949219 16.882812 C 5.457031 16.882812 8.753906 18.253906 11.238281 20.742188 C 13.71875 23.21875 15.089844 26.53125 15.089844 30.054688 L 20.5 30.054688 C 20.5 19.820312 12.175781 11.496094 1.949219 11.496094 Z M 1.957031 1.945312 L 1.957031 7.335938 C 14.46875 7.335938 24.652344 17.527344 24.652344 30.054688 L 30.054688 30.054688 C 30.054688 14.558594 17.449219 1.945312 1.957031 1.945312 Z M 1.957031 1.945312 "
       id="path2" />
  </g>
</svg>

<svg width="32px" height="32px" version="1.1" viewBox="0 0 32 32" xmlns="http://www.w3.org/2000/svg">
 <g fill="#eceff4">
  <path d="m5.6875 22.559c-2.0625 0-3.7422 1.6836-3.7422 3.7344 0 2.0625 1.6797 3.7266 3.7422 3.7266 2.0703 0 3.7461-1.6641 3.7461-3.7266 0-2.0508-1.6758-3.7344-3.7461-3.7344zm-3.7383-11.062v5.3867c3.5078 0 6.8047 1.3711 9.2891 3.8594 2.4805 2.4766 3.8516 5.7891 3.8516 9.3125h5.4102c0-10.234-8.3242-18.559-18.551-18.559zm0.007812-9.5508v5.3906c12.512 0 22.695 10.191 22.695 22.719h5.4023c0-15.496-12.605-28.109-28.098-28.109z" fill="#eceff4"/>
 </g>
</svg>
